res/skins/Deere/icon/ic_autodj_32px.svg

<svg id="svg2" width="32" height="32" version="1.1" viewBox="0 0 32 32" xmlns="http://www.w3.org/2000/svg"><path id="path6" d="m27 12h2c0.554 0 1 0.446 1 1v8c0 0.554-0.446 1-1 1h-2c-0.554 0-1-0.446-1-1v-8c0-0.554 0.446-1 1-1zm-24 0h2c0.554 0 1 0.446 1 1v8c0 0.554-0.446 1-1 1h-2c-0.554 0-1-0.446-1-1v-8c0-0.554 0.446-1 1-1zm5 0v1.1563 0.8437 10.844c0 0.6463 0.446 1.1562 1 1.1562h1v3c0 0.554 0.446 1 1 1h2c0.554 0 1-0.446 1-1v-3h4v3c0 0.554 0.446 1 1 1h2c0.554 0 1-0.446 1-1v-3h1c0.554 0 1-0.5099 1-1.1562v-10.844-0.8437-1.1563h-1-14-1zm8-10.062c-4.4183 0-8 3.5967-8 8.0313 0 0.011-4.09e-5 0.021 0 0.031h16c4.1e-5 -0.011 0-0.021 0-0.031 0-4.4346-3.5817-8.0313-8-8.0313zm-3.5 3.0625c0.82843 0 1.5 0.6716 1.5 1.5s-0.67157 1.5-1.5 1.5-1.5-0.6716-1.5-1.5 0.67157-1.5 1.5-1.5zm7 0c0.82843 0 1.5 0.6716 1.5 1.5s-0.67157 1.5-1.5 1.5-1.5-0.6716-1.5-1.5 0.67157-1.5 1.5-1.5z" color="#000000" fill="#f60"/></svg>

<?xml version="1.0" encoding="UTF-8" standalone="no"?>
<svg
   xmlns:dc="http://purl.org/dc/elements/1.1/"
   xmlns:cc="http://creativecommons.org/ns#"
   xmlns:rdf="http://www.w3.org/1999/02/22-rdf-syntax-ns#"
   xmlns:svg="http://www.w3.org/2000/svg"
   xmlns="http://www.w3.org/2000/svg"
   xmlns:sodipodi="http://sodipodi.sourceforge.net/DTD/sodipodi-0.dtd"
   xmlns:inkscape="http://www.inkscape.org/namespaces/inkscape"
   height="32"
   width="32"
   version="1.1"
   viewBox="0 0 31.999999 31.999998"
   id="svg2"
   inkscape:version="0.91 r13725"
   sodipodi:docname="ic_autodj_32px.svg">
  <metadata
     id="metadata12">
    <rdf:RDF>
      <cc:Work
         rdf:about="">
        <dc:format>image/svg+xml</dc:format>
        <dc:type
           rdf:resource="http://purl.org/dc/dcmitype/StillImage" />
      </cc:Work>
    </rdf:RDF>
  </metadata>
  <defs
     id="defs10" />
  <sodipodi:namedview
     pagecolor="#ffffff"
     bordercolor="#666666"
     borderopacity="1"
     objecttolerance="10"
     gridtolerance="10"
     guidetolerance="10"
     inkscape:pageopacity="0"
     inkscape:pageshadow="2"
     inkscape:window-width="1366"
     inkscape:window-height="702"
     id="namedview8"
     showgrid="false"
     inkscape:zoom="7.375"
     inkscape:cx="16.813559"
     inkscape:cy="16"
     inkscape:window-x="0"
     inkscape:window-y="27"
     inkscape:window-maximized="1"
     inkscape:current-layer="svg2" />
  <path
     inkscape:connector-curvature="0"
     id="path6"
     d="m 27,12 2,0 c 0.554,0 1,0.446 1,1 l 0,8 c 0,0.554 -0.446,1 -1,1 l -2,0 c -0.554,0 -1,-0.446 -1,-1 l 0,-8 c 0,-0.554 0.446,-1 1,-1 z m -24,0 2,0 c 0.554,0 1,0.446 1,1 l 0,8 c 0,0.554 -0.446,1 -1,1 L 3,22 C 2.446,22 2,21.554 2,21 L 2,13 C 2,12.446 2.446,12 3,12 Z M 8,12 8,13.1563 8,14 8,24.844 c 0,0.6463 0.446,1.1562 1,1.1562 l 1,0 0,3 c 0,0.554 0.446,1 1,1 l 2,0 c 0.554,0 1,-0.446 1,-1 l 0,-3 4,0 0,3 c 0,0.554 0.446,1 1,1 l 2,0 c 0.554,0 1,-0.446 1,-1 l 0,-3 1,0 c 0.554,0 1,-0.5099 1,-1.1562 L 24,14 24,13.1563 24,12 23,12 9,12 8,12 Z M 16,1.938 c -4.4183,0 -8,3.5967 -8,8.0313 0,0.011 -4.09e-5,0.021 0,0.031 l 16,0 c 4.1e-5,-0.011 0,-0.021 0,-0.031 C 24,5.5347 20.4183,1.938 16,1.938 Z m -3.5,3.0625 c 0.82843,0 1.5,0.6716 1.5,1.5 0,0.8284 -0.67157,1.5 -1.5,1.5 -0.82843,0 -1.5,-0.6716 -1.5,-1.5 0,-0.8284 0.67157,-1.5 1.5,-1.5 z m 7,0 c 0.82843,0 1.5,0.6716 1.5,1.5 0,0.8284 -0.67157,1.5 -1.5,1.5 -0.82843,0 -1.5,-0.6716 -1.5,-1.5 0,-0.8284 0.67157,-1.5 1.5,-1.5 z"
     style="color:#000000;fill:#ff6600;fill-opacity:1" />
</svg>
